X:6191
T:German Air. GS.076
T:Lieber Augustine. GS.076
M:3/8
L:1/8
Q:30
S:George Spencer m/s, Leeds,1831
R:Waltz
O:England
A:Leeds
N:See also number 40 - almost identica  1/0 - fingering given in MS - B
N:is first finger , D is open string..  1 - this note is G in No. 40
H:1831
Z:vmp.Cherri Graebe
K:BB major
.f(f/2g/2)(f/2e/2) | (fB).B | .c.A.F | .d.B.F | .f(f/2g/2)(f/2e/2) |! .d
.B.B | .c.A.F | "1/0"[D3B3] :||:
cAF | dB"1"F |! ecA | fdB | .f(f/g/)(f/e/) | dBB | cAF | [D3B3] :||
